X: 1
T: Whiddon's -- Hornpipe
B: Ryan's Mammoth Collection of Fiddle Tunes
R: hornpipe
M: 2/4
L: 1/16
Z: Contributed 20000509154226 by Bob Safranek rjs:gsp.org
K: Bb
uF2 | vB2vBA BFDF | Bcde fgab | BFcF dFeF | dcBd cBAc |
      B2BA   BFDF | Bcde fgab | {g}f=efg f_ecA | Bbfd B2 :|
|: (uFD) | B,DFB dBFD | EGcd ecAc | Bbab fdBd | (3cdc (3BAG (3FGF (3EDC |
          vB,DFB dBFD | EGcd edAc | Bbab fecA | (3Bdf (3bfd B2 :|

